static/logos/firebase.svg

<svg width="239" height="68" viewBox="0 0 239 68" fill="none" xmlns="http://www.w3.org/2000/svg">
<path d="M72.1705 52.6807H67.729V17.6014H87.9003V21.9112H72.1705V33.4282H86.3582V37.6385H72.1705V52.6807ZM96.2516 22.6499C95.1928 23.7294 93.5302 23.899 92.281 23.0549C91.0319 22.2108 90.5442 20.5883 91.1165 19.1801C91.6888 17.7719 93.1615 16.9704 94.6336 17.2661C96.1057 17.5617 97.1668 18.8721 97.1678 20.3955C97.1821 21.2439 96.8489 22.0603 96.2478 22.6499H96.2516ZM96.2516 52.6807H91.8101V28.6744H96.2516V52.6807ZM105.998 52.6807H101.556V28.6744H105.802V32.5938H105.994C106.507 31.2126 107.492 30.0647 108.769 29.3595C109.989 28.5646 111.4 28.1239 112.849 28.085C113.986 28.0522 115.118 28.2526 116.178 28.6744L114.489 32.8847C113.727 32.6274 112.927 32.5107 112.125 32.5402C110.496 32.5486 108.946 33.2514 107.853 34.4769C106.614 35.7681 105.994 37.4586 105.994 39.5484L105.998 52.6807ZM128.348 53.4462C124.777 53.4462 121.874 52.2379 119.639 49.8215C117.404 47.405 116.286 44.3571 116.283 40.6775C116.218 37.3646 117.38 34.1475 119.541 31.6637C121.61 29.1914 124.671 27.8037 127.866 27.8898C131.372 27.8898 134.18 29.0495 136.289 31.369C138.398 33.6885 139.451 36.7913 139.448 40.6775L139.399 41.5119H120.717C120.846 43.9284 121.642 45.8421 123.108 47.2532C124.478 48.6188 126.327 49.376 128.247 49.3584C131.431 49.3584 133.587 47.9868 134.713 45.2438L138.672 46.9087C137.869 48.8068 136.546 50.4305 134.86 51.586C133.088 52.8261 130.917 53.4462 128.348 53.4462ZM134.72 37.7533C134.625 36.3805 134.005 35.074 132.862 33.8339C131.718 32.5938 130.017 31.9865 127.76 32.012C126.195 31.9842 124.674 32.5428 123.489 33.5813C122.247 34.6861 121.378 36.1587 121.004 37.7916L134.72 37.7533ZM155.495 53.4462C153.814 53.48 152.152 53.0852 150.661 52.2979C149.352 51.6274 148.244 50.6122 147.453 49.3584H147.26V52.6807H143.011V17.6014H147.453V28.6744L147.26 32.0043H147.453C148.244 30.7505 149.352 29.7353 150.661 29.0648C152.15 28.2684 153.812 27.8643 155.495 27.8898C158.551 27.8898 161.191 29.1146 163.413 31.5642C165.635 34.0138 166.744 37.0516 166.742 40.6775C166.742 44.3035 165.632 47.3413 163.413 49.7909C161.193 52.2405 158.554 53.4589 155.495 53.4462ZM154.771 49.3316C156.794 49.3479 158.727 48.4824 160.08 46.9547C161.56 45.3701 162.3 43.2713 162.3 40.6584C162.3 38.0455 161.56 35.9467 160.08 34.3621C158.712 32.8526 156.785 31.9918 154.765 31.9874C152.744 31.9831 150.814 32.8356 149.44 34.3391C147.977 35.9059 147.245 38.0123 147.245 40.6584C147.245 43.3045 147.984 45.4173 149.462 46.9968C150.823 48.5188 152.761 49.3758 154.786 49.3507L154.771 49.3316ZM178.049 53.4462C175.535 53.4462 173.437 52.7113 171.753 51.2415C170.069 49.7717 169.224 47.8286 169.219 45.4122C169.219 42.7993 170.217 40.7503 172.213 39.2652C174.208 37.7801 176.669 37.0375 179.595 37.0375C182.201 37.0375 184.338 37.5275 186.004 38.5073V37.8222C186.068 36.2086 185.412 34.6519 184.217 33.5851C183.001 32.5219 181.437 31.9606 179.832 32.012C178.605 31.996 177.396 32.3174 176.334 32.9421C175.338 33.5017 174.575 34.4067 174.184 35.4912L170.131 33.7267C170.679 32.285 171.758 30.948 173.366 29.7155C174.975 28.483 177.099 27.8706 179.738 27.8783C182.754 27.8783 185.268 28.7714 187.279 30.5575C189.29 32.3437 190.288 34.875 190.272 38.1514V52.6807H186.012V49.3507H185.82C184.048 52.081 181.457 53.4462 178.049 53.4462ZM178.773 49.3316C180.639 49.325 182.431 48.5857 183.772 47.2685C185.202 46.0449 186.03 44.2448 186.035 42.3463C184.778 41.3001 182.893 40.777 180.379 40.777C178.222 40.777 176.597 41.2504 175.504 42.1971C174.484 42.9933 173.879 44.2206 173.864 45.527C173.843 46.6639 174.417 47.727 175.372 48.3211C176.377 49.0066 177.563 49.3657 178.773 49.3507V49.3316ZM203.337 53.4462C200.697 53.4462 198.518 52.7929 196.799 51.4865C195.126 50.2323 193.823 48.5383 193.029 46.5872L196.987 44.9223C198.244 47.9281 200.381 49.4311 203.397 49.4311C204.595 49.4809 205.78 49.1563 206.79 48.501C207.624 47.9757 208.127 47.0472 208.117 46.0514C208.117 44.4846 207.039 43.4231 204.883 42.8669L200.106 41.6918C198.534 41.2696 197.069 40.51 195.811 39.4642C194.472 38.404 193.717 36.7546 193.783 35.0319C193.783 32.9089 194.708 31.1865 196.558 29.8648C198.493 28.5162 200.798 27.8224 203.144 27.8821C205.104 27.8503 207.035 28.3512 208.74 29.3327C210.348 30.26 211.592 31.7229 212.261 33.4741L208.404 35.074C207.537 32.951 205.735 31.8895 202.997 31.8895C201.833 31.8502 200.681 32.139 199.668 32.7239C198.839 33.1603 198.318 34.0298 198.318 34.9783C198.318 36.3511 199.364 37.2825 201.455 37.7724L206.134 38.9016C208.354 39.4119 209.995 40.305 211.058 41.5808C212.088 42.7727 212.654 44.3052 212.649 45.8906C212.67 48.0043 211.704 50.0031 210.044 51.2798C208.307 52.724 206.071 53.4462 203.337 53.4462ZM227.226 53.4462C223.654 53.4462 220.751 52.2379 218.516 49.8215C216.282 47.405 215.163 44.3507 215.16 40.6584C215.095 37.3455 216.258 34.1284 218.418 31.6446C220.495 29.1785 223.559 27.7983 226.754 27.8898C230.273 27.8898 233.081 29.0495 235.177 31.369C237.273 33.6885 238.327 36.7913 238.337 40.6775L238.288 41.5119H219.591C219.719 43.9284 220.516 45.8421 221.981 47.2532C223.355 48.6188 225.208 49.3734 227.131 49.3507C230.316 49.3507 232.471 47.9792 233.597 45.2361L237.556 46.9011C236.754 48.7993 235.431 50.423 233.744 51.5783C231.972 52.8236 229.799 53.4462 227.226 53.4462ZM233.597 37.7533C233.502 36.3805 232.882 35.074 231.739 33.8339C230.595 32.5938 228.897 31.9865 226.645 32.012C225.079 31.9845 223.559 32.5432 222.373 33.5813C221.131 34.6861 220.262 36.1587 219.888 37.7916L233.597 37.7533Z" fill="#37322e"/>
<path d="M2.15357 44.2825L8.77409 1.70115C8.87465 1.05229 9.37678 0.540727 10.021 0.430804C10.6652 0.320881 11.3072 0.637223 11.6152 1.21636L18.7333 14.5767L2.15357 44.2825ZM49.1657 54.6157L42.8642 15.4279C42.769 14.8651 42.3694 14.4027 41.8282 14.2292C41.287 14.0556 40.6947 14.2 40.2927 14.6034L0.546875 54.6157L22.5393 67.0103C23.9203 67.7852 25.6023 67.7852 26.9833 67.0103L49.1657 54.6157ZM31.2945 20.4171L26.2009 10.6717C25.9382 10.1699 25.4205 9.85568 24.8563 9.85568C24.2921 9.85568 23.7743 10.1699 23.5117 10.6717L1.14701 50.7527L31.2945 20.4171Z" fill="#37322e"/>
</svg>

<svg fill="none" xmlns="http://www.w3.org/2000/svg" viewBox="0 0 239 68"><path d="M72.2 52.7h-4.5V17.6H88v4.3H72.2v11.5h14.2v4.2H72.2v15zm24-30c-1 1-2.7 1.2-4 .4a3.2 3.2 0 01-1-4 3.1 3.1 0 016 1.3 3 3 0 01-1 2.2zm0 30h-4.4v-24h4.5v24zm9.8 0h-4.4v-24h4.2v3.9h.2a6.1 6.1 0 012.8-3.2 7.9 7.9 0 014-1.3c1.2 0 2.3.2 3.4.6l-1.7 4.2c-.8-.3-1.6-.4-2.4-.4-1.6 0-3.2.8-4.2 2a7 7 0 00-2 5l.1 13.2zm22.3.7c-3.5 0-6.4-1.2-8.7-3.6a13 13 0 01-3.3-9.1c0-3.3 1-6.6 3.2-9 2.1-2.5 5.2-3.9 8.4-3.8 3.5 0 6.3 1.1 8.4 3.5 2.1 2.3 3.2 5.4 3.1 9.3v.8h-18.7c.1 2.4 1 4.3 2.4 5.8a7.2 7.2 0 005.1 2c3.2 0 5.4-1.3 6.5-4l4 1.6a10.7 10.7 0 01-10.4 6.5zm6.4-15.6c0-1.4-.7-2.7-1.8-4-1.2-1.2-2.9-1.8-5.1-1.8-1.6 0-3.1.5-4.3 1.6a8 8 0 00-2.5 4.2h13.7zm20.8 15.6a10 10 0 01-4.8-1.1 8.2 8.2 0 01-3.2-3h-.2v3.4H143V17.6h4.5v11l-.2 3.4h.2a8.2 8.2 0 013.2-3 10.3 10.3 0 0112.8 2.5 13 13 0 013.2 9.2 13 13 0 01-3.3 9 10.3 10.3 0 01-8 3.7zm-.7-4c2 0 4-1 5.3-2.4a8.9 8.9 0 002.2-6.3c0-2.7-.7-4.8-2.2-6.3a7.2 7.2 0 00-10.7 0 8.9 8.9 0 00-2.2 6.3c0 2.6.8 4.7 2.3 6.3a7 7 0 005.3 2.4zm23.2 4c-2.5 0-4.6-.7-6.2-2.2a7.4 7.4 0 01-2.6-5.8c0-2.6 1-4.6 3-6.1a12 12 0 017.4-2.3c2.6 0 4.7.5 6.4 1.5v-.7c0-1.6-.6-3.1-1.8-4.2a6.3 6.3 0 00-4.4-1.6c-1.2 0-2.4.3-3.5 1-1 .5-1.7 1.4-2.1 2.5l-4-1.8a9.4 9.4 0 013.2-4c1.6-1.2 3.7-1.8 6.3-1.8 3 0 5.6.9 7.6 2.7 2 1.7 3 4.3 3 7.6v14.5H186v-3.3h-.2a8.7 8.7 0 01-7.8 4zm.8-4c1.8 0 3.6-.8 5-2.1s2.2-3 2.2-5c-1.2-1-3.1-1.5-5.6-1.5-2.2 0-3.8.5-4.9 1.4-1 .8-1.6 2-1.6 3.3 0 1.2.5 2.2 1.5 2.8 1 .7 2.2 1 3.4 1zm24.5 4a10.5 10.5 0 01-10.3-6.8l4-1.7c1.2 3 3.4 4.5 6.4 4.5 1.2 0 2.4-.2 3.4-.9.8-.5 1.3-1.5 1.3-2.4 0-1.6-1-2.7-3.2-3.2l-4.8-1.2c-1.6-.4-3-1.2-4.3-2.2-1.3-1.1-2-2.7-2-4.5a6 6 0 012.8-5.1c1.9-1.4 4.2-2 6.5-2 2 0 4 .5 5.6 1.4 1.6 1 2.9 2.4 3.6 4.2l-3.9 1.6c-.9-2.1-2.7-3.2-5.4-3.2-1.2 0-2.3.2-3.3.8-.9.5-1.4 1.3-1.4 2.3 0 1.4 1 2.3 3.2 2.8l4.6 1.1c2.3.5 3.9 1.4 5 2.7 1 1.2 1.6 2.7 1.5 4.3 0 2.1-.9 4.1-2.6 5.4-1.7 1.4-4 2.1-6.7 2.1zm24 0c-3.6 0-6.5-1.2-8.8-3.6a13 13 0 01-3.3-9.1c-.1-3.4 1-6.6 3.2-9 2-2.5 5.2-3.9 8.4-3.8 3.5 0 6.3 1.1 8.4 3.5 2 2.3 3.1 5.4 3.1 9.3v.8h-18.7c.1 2.4 1 4.3 2.4 5.8a7.2 7.2 0 005.1 2c3.2 0 5.4-1.3 6.5-4l4 1.6a10.7 10.7 0 01-10.4 6.5zm6.3-15.6c-.1-1.4-.7-2.7-1.9-4-1.1-1.2-2.8-1.8-5-1.8-1.6 0-3.1.5-4.3 1.6a8 8 0 00-2.5 4.2h13.7zM2.2 44.3L8.8 1.7c0-.6.6-1.2 1.2-1.3.7 0 1.3.2 1.6.8l7.1 13.4L2.2 44.3zm47 10.3l-6.3-39.2c-.1-.5-.5-1-1-1.2-.6-.1-1.2 0-1.6.4L.5 54.6l22 12.4c1.4.8 3.1.8 4.5 0l22.2-12.4zm-18-34.2l-5-9.7a1.5 1.5 0 00-2.7 0l-22.4 40 30.2-30.3z" fill="#37322e"/></svg>
